Origami/64x64/apps/disk-burner.svg

<svg width="64" height="64" version="1" xmlns="http://www.w3.org/2000/svg">
 <path d="m32 5c-15.512 0-28 12.488-28 28s12.488 28 28 28 28-12.488 28-28-12.488-28-28-28zm0 16a12 12 0 0 1 12 12 12 12 0 0 1 -12 12 12 12 0 0 1 -12 -12 12 12 0 0 1 12 -12z" style="opacity:.2"/>
 <path d="m32 17a15 15 0 0 0 -15 15 15 15 0 0 0 15 15 15 15 0 0 0 15 -15 15 15 0 0 0 -15 -15zm0 9c3.3138 0 6 2.6862 6 6s-2.6862 6-6 6-6-2.6862-6-6 2.6862-6 6-6z" style="fill:#848484"/>
 <path d="m32 4c-15.512 0-28 12.488-28 28s12.488 28 28 28 28-12.488 28-28-12.488-28-28-28zm0 16a12 12 0 0 1 12 12 12 12 0 0 1 -12 12 12 12 0 0 1 -12 -12 12 12 0 0 1 12 -12z" style="fill:#cccccc"/>
 <path d="M 32 4 C 16.488 4 4 16.488 4 32 C 4 32.113556 4.0112845 32.224032 4.0175781 32.335938 C 4.3691213 17.134181 16.710728 5 32 5 C 47.287972 5 59.630821 17.13209 59.984375 32.332031 C 59.990631 32.221433 60 32.112217 60 32 C 60 16.488 47.512 4 32 4 z M 20.050781 32.996094 A 12 12 0 0 0 20 34 A 12 12 0 0 0 20.025391 34.5 A 12 12 0 0 1 20.050781 33.996094 A 12 12 0 0 0 32 45 A 12 12 0 0 0 43.949219 34.003906 A 12 12 0 0 1 43.978516 34.595703 A 12 12 0 0 0 44 34 A 12 12 0 0 0 43.949219 33.003906 A 12 12 0 0 1 32 44 A 12 12 0 0 1 20.050781 32.996094 z" style="fill:#ffffff;opacity:.2"/>
 <path d="M 63.958,45.848 A 16,16 0 0 1 48,61 16,16 0 0 1 32.042,46.152 16,16 0 0 0 32,47 16,16 0 0 0 48,63 16,16 0 0 0 64,47 16,16 0 0 0 63.95704,45.84766 Z" style="opacity:.2"/>
 <circle cx="48" cy="46" r="16" style="fill:#ff5722"/>
 <path d="m49.854 38c-4.908 2-7.854 6.688-7.854 10 0 3.2748 2.5768 5.932 5.7774 5.9942-1.59936-0.03198-2.8878-1.3574-2.8878-2.9942 0-1.65686 1.47262-4 3.927-5 0 3.5 2.6352 4.006 1.96348 6-0.38086 1.13066-1.30986 1.98882-2.9204 1.99804 0.0096 5e-5 0.0203 0.0011 0.03058 0.0011 3.2532 0 5.1246-1.7264 5.8904-4 1.3434-3.9882-3.927-5-3.927-12z" style="fill:#ffffff"/>
</svg>

<svg xmlns="http://www.w3.org/2000/svg" width="64" height="64" version="1">
 <path style="opacity:0.2" d="M 32,5 C 16.488,5 4,17.488 4,33 4,48.512 16.488,61 32,61 47.512,61 60,48.512 60,33 60,17.488 47.512,5 32,5 Z m 0,16 A 12,12 0 0 1 44,33 12,12 0 0 1 32,45 12,12 0 0 1 20,33 12,12 0 0 1 32,21 Z"/>
 <path style="fill:#848484" d="M 32,17 A 15,15 0 0 0 17,32 15,15 0 0 0 32,47 15,15 0 0 0 47,32 15,15 0 0 0 32,17 Z m 0,9 c 3.3138,0 6,2.6862 6,6 0,3.3138 -2.6862,6 -6,6 -3.3138,0 -6,-2.6862 -6,-6 0,-3.3138 2.6862,-6 6,-6 z"/>
 <path style="fill:#cccccc" d="M 32,4 C 16.488,4 4,16.488 4,32 4,47.512 16.488,60 32,60 47.512,60 60,47.512 60,32 60,16.488 47.512,4 32,4 Z m 0,16 A 12,12 0 0 1 44,32 12,12 0 0 1 32,44 12,12 0 0 1 20,32 12,12 0 0 1 32,20 Z"/>
 <path style="opacity:0.2;fill:#ffffff" d="M 32 4 C 16.488 4 4 16.488 4 32 C 4 32.113556 4.0112845 32.224032 4.0175781 32.335938 C 4.3691213 17.134181 16.710728 5 32 5 C 47.287972 5 59.630821 17.13209 59.984375 32.332031 C 59.990631 32.221433 60 32.112217 60 32 C 60 16.488 47.512 4 32 4 z M 20.050781 32.996094 A 12 12 0 0 0 20 34 A 12 12 0 0 0 20.025391 34.5 A 12 12 0 0 1 20.050781 33.996094 A 12 12 0 0 0 32 45 A 12 12 0 0 0 43.949219 34.003906 A 12 12 0 0 1 43.978516 34.595703 A 12 12 0 0 0 44 34 A 12 12 0 0 0 43.949219 33.003906 A 12 12 0 0 1 32 44 A 12 12 0 0 1 20.050781 32.996094 z"/>
 <path style="opacity:0.2" d="M 63.958,45.848 A 16,16 0 0 1 48,61 16,16 0 0 1 32.042,46.152 16,16 0 0 0 32,47 16,16 0 0 0 48,63 16,16 0 0 0 64,47 16,16 0 0 0 63.95704,45.84766 Z"/>
 <circle style="fill:#ff5722" cx="48" cy="46" r="16"/>
 <path style="fill:#ffffff" d="M 49.854,38 C 44.946,40 42,44.688 42,48 c 0,3.2748 2.5768,5.932 5.7774,5.9942 C 46.17804,53.96222 44.8896,52.6368 44.8896,51 c 0,-1.65686 1.47262,-4 3.927,-5 0,3.5 2.6352,4.006 1.96348,6 -0.38086,1.13066 -1.30986,1.98882 -2.9204,1.99804 0.0096,5e-5 0.0203,0.0011 0.03058,0.0011 3.2532,0 5.1246,-1.7264 5.8904,-4 1.3434,-3.9882 -3.927,-5 -3.927,-12 z"/>
</svg>
